img/distros/alpine.svg

<svg width="186" height="186" version="1.1" xmlns="http://www.w3.org/2000/svg">
  <g transform="matrix(1.25 0 0 -1.25 -267.56 591.99)">
    <g transform="matrix(.99932 0 0 .99932 268.1 383.36)" style="fill:#0d597f">
      <path d="m0 0v15.687l-11.296-11.308c1.217-.847 2.364-1.543 3.443-2.109 1.079-.567 2.089-1.005 3.03-1.338.941-.334 1.814-.562 2.617-.71.804-.147 1.539-.213 2.206-.222m57.751 1.304c.02-.017.13-.11.333-.239.204-.13.502-.297.898-.462.395-.164.889-.327 1.485-.448.596-.122 1.294-.202 2.098-.202.671 0 1.411.059 2.222.2.812.142 1.693.367 2.645.699.953.333 1.976.773 3.07 1.344 1.094.572 2.259 1.276 3.495 2.136l-8.572 8.397-28.41 28.516-12.466-12.469-16.816 17.341-42.204-41.727c1.235-.86 2.398-1.564 3.491-2.136 1.093-.571 2.115-1.011 3.067-1.344.951-.332 1.832-.557 2.643-.698.81-.142 1.55-.201 2.22-.201.804 0 1.502.08 2.097.202.596.121 1.089.284 1.485.449.396.164.693.331.897.461s.314.223.334.24l19.052 19.052 6.813 6.533 18.866-18.866 6.591-6.778c.02-.017.13-.11.334-.239.204-.13.501-.297.897-.462.396-.164.89-.327 1.485-.448.596-.122 1.295-.202 2.099-.202.67 0 1.411.059 2.222.2.811.142 1.693.367 2.645.699.952.333 1.975.773 3.069 1.344 1.094.572 2.259 1.276 3.495 2.136l-15.139 14.825 2.818 2.818 13.101-13.101 7.64-7.57m-.163 79.016 37.219-64.482-37.219-64.482h-74.463l-37.219 64.482 37.219 64.482z" style="fill:#0d597f"/>
    </g>
    <g transform="matrix(.99932 0 0 .99932 302.54 402.23)" style="fill:#0d597f">
      <path d="m0 0-9.913 9.895.705.709 9.983-9.874z" style="fill:#0d597f"/>
    </g>
  </g>
</svg>

<?xml version="1.0" encoding="UTF-8" standalone="no"?>
<!-- Created with Inkscape (http://www.inkscape.org/) -->

<svg
   id="svg2"
   version="1.1"
   inkscape:version="1.3 (0e150ed6c4, 2023-07-21)"
   width="186"
   height="186"
   xml:space="preserve"
   sodipodi:docname="alpine.svg"
   xmlns:inkscape="http://www.inkscape.org/namespaces/inkscape"
   xmlns:sodipodi="http://sodipodi.sourceforge.net/DTD/sodipodi-0.dtd"
   xmlns="http://www.w3.org/2000/svg"
   xmlns:svg="http://www.w3.org/2000/svg"
   xmlns:rdf="http://www.w3.org/1999/02/22-rdf-syntax-ns#"
   xmlns:cc="http://creativecommons.org/ns#"
   xmlns:dc="http://purl.org/dc/elements/1.1/"><metadata
     id="metadata8"><rdf:RDF><cc:Work
         rdf:about=""><dc:format>image/svg+xml</dc:format><dc:type
           rdf:resource="http://purl.org/dc/dcmitype/StillImage" /></cc:Work></rdf:RDF></metadata><defs
     id="defs6"><clipPath
       clipPathUnits="userSpaceOnUse"
       id="clipPath16"><path
         d="M 0,560 H 960 V 0 H 0 Z"
         id="path18"
         inkscape:connector-curvature="0" /></clipPath></defs><sodipodi:namedview
     pagecolor="#ffffff"
     bordercolor="#666666"
     borderopacity="1"
     objecttolerance="10"
     gridtolerance="10"
     guidetolerance="10"
     inkscape:pageopacity="0"
     inkscape:pageshadow="2"
     inkscape:window-width="1595"
     inkscape:window-height="964"
     id="namedview4"
     showgrid="false"
     fit-margin-top="0"
     fit-margin-left="0"
     fit-margin-right="0"
     fit-margin-bottom="0"
     inkscape:zoom="2.6666666"
     inkscape:cx="60.750001"
     inkscape:cy="93.187501"
     inkscape:window-x="276"
     inkscape:window-y="233"
     inkscape:window-maximized="0"
     inkscape:current-layer="g10"
     inkscape:showpageshadow="0"
     inkscape:pagecheckerboard="0"
     inkscape:deskcolor="#d1d1d1" /><g
     id="g10"
     inkscape:groupmode="layer"
     inkscape:label="Alpine_Linux_logo_v4"
     transform="matrix(1.25,0,0,-1.25,-267.55675,591.98975)"><g
       id="g56"
       transform="matrix(0.9993217,0,0,0.9993217,268.10271,383.36454)"
       style="fill:#4af43b;fill-opacity:1"><path
         d="M 0,0 V 15.687 L -11.296,4.379 C -10.079,3.532 -8.932,2.836 -7.853,2.27 -6.774,1.703 -5.764,1.265 -4.823,0.932 -3.882,0.598 -3.009,0.37 -2.206,0.222 -1.402,0.075 -0.667,0.009 0,0 m 57.751,1.304 c 0.02,-0.017 0.13,-0.11 0.333,-0.239 0.204,-0.13 0.502,-0.297 0.898,-0.462 0.395,-0.164 0.889,-0.327 1.485,-0.448 0.596,-0.122 1.294,-0.202 2.098,-0.202 0.671,0 1.411,0.059 2.222,0.2 0.812,0.142 1.693,0.367 2.645,0.699 0.953,0.333 1.976,0.773 3.07,1.344 1.094,0.572 2.259,1.276 3.495,2.136 L 65.425,12.729 37.015,41.245 24.549,28.776 7.733,46.117 -34.471,4.39 c 1.235,-0.86 2.398,-1.564 3.491,-2.136 1.093,-0.571 2.115,-1.011 3.067,-1.344 0.951,-0.332 1.832,-0.557 2.643,-0.698 0.81,-0.142 1.55,-0.201 2.22,-0.201 0.804,0 1.502,0.08 2.097,0.202 0.596,0.121 1.089,0.284 1.485,0.449 0.396,0.164 0.693,0.331 0.897,0.461 0.204,0.13 0.314,0.223 0.334,0.24 L 0.815,20.415 7.628,26.948 26.494,8.082 33.085,1.304 c 0.02,-0.017 0.13,-0.11 0.334,-0.239 0.204,-0.13 0.501,-0.297 0.897,-0.462 0.396,-0.164 0.89,-0.327 1.485,-0.448 0.596,-0.122 1.295,-0.202 2.099,-0.202 0.67,0 1.411,0.059 2.222,0.2 0.811,0.142 1.693,0.367 2.645,0.699 0.952,0.333 1.975,0.773 3.069,1.344 1.094,0.572 2.259,1.276 3.495,2.136 L 34.192,19.157 37.01,21.975 50.111,8.874 57.751,1.304 M 57.588,80.32 94.807,15.838 57.588,-48.644 h -74.463 l -37.219,64.482 37.219,64.482 z"
         style="fill:#4af43b;fill-opacity:1;fill-rule:nonzero;stroke:none"
         id="path58"
         inkscape:connector-curvature="0" /></g><g
       id="g60"
       transform="matrix(0.9993217,0,0,0.9993217,302.4441,412.29261)"
       style="fill:#4af43b;fill-opacity:1"><path
         d="M 0,0 -9.913,9.895 -9.208,10.604 0.775,0.73 Z"
         style="fill:#4af43b;fill-opacity:1;fill-rule:nonzero;stroke:none"
         id="path62"
         inkscape:connector-curvature="0" /></g></g></svg>
